report_00007_2020-12-11T15:55:29.892Z/metrics/comparison/line/6_vs_7.svg

<svg width="640" height="500" xmlns="http://www.w3.org/2000/svg" xmlns:xlink="http://www.w3.org/1999/xlink"><path fill="#fff" d="M0 0h640v500H0z"/><defs><path id="d" stroke-width=".222" stroke="currentColor" d="M-1-1h2v2h-2z"/><path id="b" stroke-width=".222" stroke="currentColor" d="M0-1.33l-1.33 2h2.66z"/><path id="f" stroke-width=".222" stroke="currentColor" d="M0 1.33L1.265.411.782-1.067l-1.564-.009-.483 1.487z"/><use xlink:href="#b" id="c" stroke="currentColor" transform="rotate(180)"/><use xlink:href="#d" id="e" stroke="currentColor" transform="rotate(45)"/><circle id="a" stroke-width=".222" stroke="currentColor" cx="0" cy="0" r="1"/></defs><g fill="none" color="#000" stroke="currentColor"><path stroke="#000" d="M62.2 425.6h9m543.8 0h-9"/><text transform="translate(53.9 429.5)" stroke="none" fill="#000" font-family="Arial" font-size="12" text-anchor="end"><tspan>1500</tspan></text></g><g fill="none" color="#000" stroke="currentColor"><path stroke="#000" d="M62.2 371h9m543.8 0h-9"/><text transform="translate(53.9 374.9)" stroke="none" fill="#000" font-family="Arial" font-size="12" text-anchor="end"><tspan>1600</tspan></text></g><g fill="none" color="#000" stroke="currentColor"><path stroke="#000" d="M62.2 316.4h9m543.8 0h-9"/><text transform="translate(53.9 320.3)" stroke="none" fill="#000" font-family="Arial" font-size="12" text-anchor="end"><tspan>1700</tspan></text></g><g fill="none" color="#000" stroke="currentColor"><path stroke="#000" d="M62.2 261.8h9m543.8 0h-9"/><text transform="translate(53.9 265.7)" stroke="none" fill="#000" font-family="Arial" font-size="12" text-anchor="end"><tspan>1800</tspan></text></g><g fill="none" color="#000" stroke="currentColor"><path stroke="#000" d="M62.2 207.2h9m543.8 0h-9"/><text transform="translate(53.9 211.1)" stroke="none" fill="#000" font-family="Arial" font-size="12" text-anchor="end"><tspan>1900</tspan></text></g><g fill="none" color="#000" stroke="currentColor"><path stroke="#000" d="M62.2 152.6h9m543.8 0h-9"/><text transform="translate(53.9 156.5)" stroke="none" fill="#000" font-family="Arial" font-size="12" text-anchor="end"><tspan>2000</tspan></text></g><g fill="none" color="#000" stroke="currentColor"><path stroke="#000" d="M62.2 98h9M615 98h-9"/><text transform="translate(53.9 101.9)" stroke="none" fill="#000" font-family="Arial" font-size="12" text-anchor="end"><tspan>2100</tspan></text></g><g fill="none" color="#000" stroke="currentColor"><path stroke="#000" d="M62.2 43.5h9m543.8 0h-9"/><text transform="translate(53.9 47.4)" stroke="none" fill="#000" font-family="Arial" font-size="12" text-anchor="end"><tspan>2200</tspan></text></g><g fill="none" color="#000" stroke="currentColor"><path stroke="#000" d="M62.2 428v-9m0-400.9v9"/><text transform="translate(62.2 449.9)" stroke="none" fill="#000" font-family="Arial" font-size="12" text-anchor="middle"><tspan>0</tspan></text></g><g fill="none" color="#000" stroke="currentColor"><path stroke="#000" d="M118 428v-9m0-400.9v9"/><text transform="translate(118 449.9)" stroke="none" fill="#000" font-family="Arial" font-size="12" text-anchor="middle"><tspan>10</tspan></text></g><g fill="none" color="#000" stroke="currentColor"><path stroke="#000" d="M173.9 428v-9m0-400.9v9"/><text transform="translate(173.9 449.9)" stroke="none" fill="#000" font-family="Arial" font-size="12" text-anchor="middle"><tspan>20</tspan></text></g><g fill="none" color="#000" stroke="currentColor"><path stroke="#000" d="M229.7 428v-9m0-400.9v9"/><text transform="translate(229.7 449.9)" stroke="none" fill="#000" font-family="Arial" font-size="12" text-anchor="middle"><tspan>30</tspan></text></g><g fill="none" color="#000" stroke="currentColor"><path stroke="#000" d="M285.6 428v-9m0-400.9v9"/><text transform="translate(285.6 449.9)" stroke="none" fill="#000" font-family="Arial" font-size="12" text-anchor="middle"><tspan>40</tspan></text></g><g fill="none" color="#000" stroke="currentColor"><path stroke="#000" d="M341.4 428v-9m0-400.9v9"/><text transform="translate(341.4 449.9)" stroke="none" fill="#000" font-family="Arial" font-size="12" text-anchor="middle"><tspan>50</tspan></text></g><g fill="none" color="#000" stroke="currentColor"><path stroke="#000" d="M397.2 428v-9m0-400.9v9"/><text transform="translate(397.2 449.9)" stroke="none" fill="#000" font-family="Arial" font-size="12" text-anchor="middle"><tspan>60</tspan></text></g><g fill="none" color="#000" stroke="currentColor"><path stroke="#000" d="M453.1 428v-9m0-400.9v9"/><text transform="translate(453.1 449.9)" stroke="none" fill="#000" font-family="Arial" font-size="12" text-anchor="middle"><tspan>70</tspan></text></g><g fill="none" color="#000" stroke="currentColor"><path stroke="#000" d="M508.9 428v-9m0-400.9v9"/><text transform="translate(508.9 449.9)" stroke="none" fill="#000" font-family="Arial" font-size="12" text-anchor="middle"><tspan>80</tspan></text></g><g fill="none" color="#000" stroke="currentColor"><path stroke="#000" d="M564.7 428v-9m0-400.9v9"/><text transform="translate(564.7 449.9)" stroke="none" fill="#000" font-family="Arial" font-size="12" text-anchor="middle"><tspan>90</tspan></text></g><path stroke="#000" d="M62.2 18.1V428H615V18.1H62.2z" fill="none" color="#000"/><text transform="translate(437.8 467.9)" stroke="none" fill="#000" font-family="Arial" font-size="12" text-anchor="end" color="#000"><tspan>pages+cached+noexternal+nofonts</tspan></text><path stroke="#9400D3" d="M446.1 464h42.2M62.2 418.5h11.2L79 253.1l5.5.5L90.1 419l5.6.6 5.6-206.9 5.6 206.3 5.6-336.2 5.5 170.8 5.6 165.4 5.6.6 5.6-.6H146l5.5-.5 5.6.5h5.6l5.6-330.8 5.6 330.8 5.6-1.1 5.5-.5 5.6-205.8 5.6 207.4 5.6.6h5.6l5.6-.6h11.1l5.6-335.7 5.6 2.7 5.6 333.6 5.6-166.5 5.6-167.6 5.5-1.1 5.6 334.6h5.6l5.6-1.1 5.6.6 5.6-335.2 5.5 335.2 5.6-331.4 5.6 331.9 5.6-.5 5.6-164.3 5.6 164.8 5.5-210.7 5.6 210.7 5.6-332.4 5.6-1.1L347 419h11.1l5.6-330.2 5.6 123.3 5.6 42.1 5.6-166.5 5.6 330.8 5.5.5 5.6.6 5.6-.6 5.6-.5L414 84.4l5.6 334.6 5.5-331.9 5.6-.5 5.6 331.9 5.6-335.7 5.6 336.2h16.7l5.6 1.1 5.6-332.4 5.6 330.8 5.6-330.8 5.6 331.9 5.5-166.5h5.6l5.6 165.4 5.6 1.1h5.6l5.6-.6 5.5-.5h5.6l5.6-330.8L548 419h5.6l5.6-334.1 5.5 334.1 5.6-.5h11.2l5.6-208.6 5.6 209.1 5.5-165.9 5.6 166.5 5.6-1.1h5.6" fill="none" color="#000"/><text transform="translate(437.8 485.9)" stroke="none" fill="#000" font-family="Arial" font-size="12" text-anchor="end" color="#000"><tspan>pages+cached+noexternal+nosvg</tspan></text><path stroke="#009E73" d="M446.1 482h42.2M62.2 253.1h5.6l5.6-2.2L79 252l5.5.5 5.6.6 5.6-3.3h5.6l5.6 1.6 5.6-.5h5.5L123.6 26l5.6 97.7 5.6 129.4 5.6-2.8h5.6l5.5 2.2h5.6l5.6-1.1 5.6-122.8 5.6 122.3 5.6 1.1h5.5l5.6-1.1 5.6 1.1 5.6-.6 5.6-.5 5.6.5 5.5 1.1h5.6l5.6-1.6h11.2l5.6 2.2 5.6-2.2 5.5-124.5 5.6.6 5.6 123.3 5.6 1.1h5.6l5.6-.5 5.5 1.1 5.6-.6 5.6-1.6 5.6.5 5.6 1.7 5.6.5 5.5-1.1 5.6-.5 5.6-1.6 5.6-122.9 5.6 124.5 5.6 1.1 5.5-1.1 5.6.5 5.6 2.2 5.6-2.2 5.6-2.1 5.6 2.1 5.5 1.1 5.6-3.8 5.6 3.8 5.6-1.1 5.6 1.1 5.6-.5h5.5l5.6.5 5.6-127.7 5.6 127.2h5.6l5.6.5 5.6.6 5.5-1.7 5.6-1.1 5.6 1.1h5.6l5.6 1.7 5.6-2.2 5.5-1.1 5.6 2.2 5.6-1.1 5.6 1.6 5.6.6 5.6-.6 5.5-1.1h5.6l5.6-1.1 5.6.6h11.2l5.5 2.2 5.6-.6 5.6-1.1 5.6 1.1 5.6-2.7 5.6 1.1 5.5 1.6 5.6-.5 5.6-.6 5.6-.5" fill="none" color="#000"/><g fill="none" color="#000" stroke="currentColor"><path stroke="#000" d="M62.2 18.1V428H615V18.1H62.2z"/></g></svg>

<?xml version="1.0" encoding="utf-8"  standalone="no"?>
<svg 
 width="640" height="500"
 viewBox="0 0 640 500"
 xmlns="http://www.w3.org/2000/svg"
 xmlns:xlink="http://www.w3.org/1999/xlink"
>

<title>Gnuplot</title>
<desc>Produced by GNUPLOT 5.4 patchlevel 0 </desc>

<g id="gnuplot_canvas">

<rect x="0" y="0" width="640" height="500" fill="#ffffff"/>
<defs>

	<circle id='gpDot' r='0.5' stroke-width='0.5' stroke='currentColor'/>
	<path id='gpPt0' stroke-width='0.222' stroke='currentColor' d='M-1,0 h2 M0,-1 v2'/>
	<path id='gpPt1' stroke-width='0.222' stroke='currentColor' d='M-1,-1 L1,1 M1,-1 L-1,1'/>
	<path id='gpPt2' stroke-width='0.222' stroke='currentColor' d='M-1,0 L1,0 M0,-1 L0,1 M-1,-1 L1,1 M-1,1 L1,-1'/>
	<rect id='gpPt3' stroke-width='0.222' stroke='currentColor' x='-1' y='-1' width='2' height='2'/>
	<rect id='gpPt4' stroke-width='0.222' stroke='currentColor' fill='currentColor' x='-1' y='-1' width='2' height='2'/>
	<circle id='gpPt5' stroke-width='0.222' stroke='currentColor' cx='0' cy='0' r='1'/>
	<use xlink:href='#gpPt5' id='gpPt6' fill='currentColor' stroke='none'/>
	<path id='gpPt7' stroke-width='0.222' stroke='currentColor' d='M0,-1.33 L-1.33,0.67 L1.33,0.67 z'/>
	<use xlink:href='#gpPt7' id='gpPt8' fill='currentColor' stroke='none'/>
	<use xlink:href='#gpPt7' id='gpPt9' stroke='currentColor' transform='rotate(180)'/>
	<use xlink:href='#gpPt9' id='gpPt10' fill='currentColor' stroke='none'/>
	<use xlink:href='#gpPt3' id='gpPt11' stroke='currentColor' transform='rotate(45)'/>
	<use xlink:href='#gpPt11' id='gpPt12' fill='currentColor' stroke='none'/>
	<path id='gpPt13' stroke-width='0.222' stroke='currentColor' d='M0,1.330 L1.265,0.411 L0.782,-1.067 L-0.782,-1.076 L-1.265,0.411 z'/>
	<use xlink:href='#gpPt13' id='gpPt14' fill='currentColor' stroke='none'/>
	<filter id='textbox' filterUnits='objectBoundingBox' x='0' y='0' height='1' width='1'>
	  <feFlood flood-color='#FFFFFF' flood-opacity='1' result='bgnd'/>
	  <feComposite in='SourceGraphic' in2='bgnd' operator='atop'/>
	</filter>
	<filter id='greybox' filterUnits='objectBoundingBox' x='0' y='0' height='1' width='1'>
	  <feFlood flood-color='lightgrey' flood-opacity='1' result='grey'/>
	  <feComposite in='SourceGraphic' in2='grey' operator='atop'/>
	</filter>
</defs>
<g fill="none" color="#FFFFFF" stroke="black" stroke-width="1.00" stroke-linecap="butt" stroke-linejoin="miter">
</g>
<g fill="none" color="black" stroke="currentColor" stroke-width="1.00" stroke-linecap="butt" stroke-linejoin="miter">
	<path stroke='black'  d='M62.2,425.6 L71.2,425.6 M615.0,425.6 L606.0,425.6  '/>	<g transform="translate(53.9,429.5)" stroke="none" fill="black" font-family="Arial" font-size="12.00"  text-anchor="end">
		<text><tspan font-family="Arial" > 1500</tspan></text>
	</g>
</g>
<g fill="none" color="black" stroke="currentColor" stroke-width="1.00" stroke-linecap="butt" stroke-linejoin="miter">
	<path stroke='black'  d='M62.2,371.0 L71.2,371.0 M615.0,371.0 L606.0,371.0  '/>	<g transform="translate(53.9,374.9)" stroke="none" fill="black" font-family="Arial" font-size="12.00"  text-anchor="end">
		<text><tspan font-family="Arial" > 1600</tspan></text>
	</g>
</g>
<g fill="none" color="black" stroke="currentColor" stroke-width="1.00" stroke-linecap="butt" stroke-linejoin="miter">
	<path stroke='black'  d='M62.2,316.4 L71.2,316.4 M615.0,316.4 L606.0,316.4  '/>	<g transform="translate(53.9,320.3)" stroke="none" fill="black" font-family="Arial" font-size="12.00"  text-anchor="end">
		<text><tspan font-family="Arial" > 1700</tspan></text>
	</g>
</g>
<g fill="none" color="black" stroke="currentColor" stroke-width="1.00" stroke-linecap="butt" stroke-linejoin="miter">
	<path stroke='black'  d='M62.2,261.8 L71.2,261.8 M615.0,261.8 L606.0,261.8  '/>	<g transform="translate(53.9,265.7)" stroke="none" fill="black" font-family="Arial" font-size="12.00"  text-anchor="end">
		<text><tspan font-family="Arial" > 1800</tspan></text>
	</g>
</g>
<g fill="none" color="black" stroke="currentColor" stroke-width="1.00" stroke-linecap="butt" stroke-linejoin="miter">
	<path stroke='black'  d='M62.2,207.2 L71.2,207.2 M615.0,207.2 L606.0,207.2  '/>	<g transform="translate(53.9,211.1)" stroke="none" fill="black" font-family="Arial" font-size="12.00"  text-anchor="end">
		<text><tspan font-family="Arial" > 1900</tspan></text>
	</g>
</g>
<g fill="none" color="black" stroke="currentColor" stroke-width="1.00" stroke-linecap="butt" stroke-linejoin="miter">
	<path stroke='black'  d='M62.2,152.6 L71.2,152.6 M615.0,152.6 L606.0,152.6  '/>	<g transform="translate(53.9,156.5)" stroke="none" fill="black" font-family="Arial" font-size="12.00"  text-anchor="end">
		<text><tspan font-family="Arial" > 2000</tspan></text>
	</g>
</g>
<g fill="none" color="black" stroke="currentColor" stroke-width="1.00" stroke-linecap="butt" stroke-linejoin="miter">
	<path stroke='black'  d='M62.2,98.0 L71.2,98.0 M615.0,98.0 L606.0,98.0  '/>	<g transform="translate(53.9,101.9)" stroke="none" fill="black" font-family="Arial" font-size="12.00"  text-anchor="end">
		<text><tspan font-family="Arial" > 2100</tspan></text>
	</g>
</g>
<g fill="none" color="black" stroke="currentColor" stroke-width="1.00" stroke-linecap="butt" stroke-linejoin="miter">
	<path stroke='black'  d='M62.2,43.5 L71.2,43.5 M615.0,43.5 L606.0,43.5  '/>	<g transform="translate(53.9,47.4)" stroke="none" fill="black" font-family="Arial" font-size="12.00"  text-anchor="end">
		<text><tspan font-family="Arial" > 2200</tspan></text>
	</g>
</g>
<g fill="none" color="black" stroke="currentColor" stroke-width="1.00" stroke-linecap="butt" stroke-linejoin="miter">
	<path stroke='black'  d='M62.2,428.0 L62.2,419.0 M62.2,18.1 L62.2,27.1  '/>	<g transform="translate(62.2,449.9)" stroke="none" fill="black" font-family="Arial" font-size="12.00"  text-anchor="middle">
		<text><tspan font-family="Arial" > 0</tspan></text>
	</g>
</g>
<g fill="none" color="black" stroke="currentColor" stroke-width="1.00" stroke-linecap="butt" stroke-linejoin="miter">
	<path stroke='black'  d='M118.0,428.0 L118.0,419.0 M118.0,18.1 L118.0,27.1  '/>	<g transform="translate(118.0,449.9)" stroke="none" fill="black" font-family="Arial" font-size="12.00"  text-anchor="middle">
		<text><tspan font-family="Arial" > 10</tspan></text>
	</g>
</g>
<g fill="none" color="black" stroke="currentColor" stroke-width="1.00" stroke-linecap="butt" stroke-linejoin="miter">
	<path stroke='black'  d='M173.9,428.0 L173.9,419.0 M173.9,18.1 L173.9,27.1  '/>	<g transform="translate(173.9,449.9)" stroke="none" fill="black" font-family="Arial" font-size="12.00"  text-anchor="middle">
		<text><tspan font-family="Arial" > 20</tspan></text>
	</g>
</g>
<g fill="none" color="black" stroke="currentColor" stroke-width="1.00" stroke-linecap="butt" stroke-linejoin="miter">
	<path stroke='black'  d='M229.7,428.0 L229.7,419.0 M229.7,18.1 L229.7,27.1  '/>	<g transform="translate(229.7,449.9)" stroke="none" fill="black" font-family="Arial" font-size="12.00"  text-anchor="middle">
		<text><tspan font-family="Arial" > 30</tspan></text>
	</g>
</g>
<g fill="none" color="black" stroke="currentColor" stroke-width="1.00" stroke-linecap="butt" stroke-linejoin="miter">
	<path stroke='black'  d='M285.6,428.0 L285.6,419.0 M285.6,18.1 L285.6,27.1  '/>	<g transform="translate(285.6,449.9)" stroke="none" fill="black" font-family="Arial" font-size="12.00"  text-anchor="middle">
		<text><tspan font-family="Arial" > 40</tspan></text>
	</g>
</g>
<g fill="none" color="black" stroke="currentColor" stroke-width="1.00" stroke-linecap="butt" stroke-linejoin="miter">
	<path stroke='black'  d='M341.4,428.0 L341.4,419.0 M341.4,18.1 L341.4,27.1  '/>	<g transform="translate(341.4,449.9)" stroke="none" fill="black" font-family="Arial" font-size="12.00"  text-anchor="middle">
		<text><tspan font-family="Arial" > 50</tspan></text>
	</g>
</g>
<g fill="none" color="black" stroke="currentColor" stroke-width="1.00" stroke-linecap="butt" stroke-linejoin="miter">
	<path stroke='black'  d='M397.2,428.0 L397.2,419.0 M397.2,18.1 L397.2,27.1  '/>	<g transform="translate(397.2,449.9)" stroke="none" fill="black" font-family="Arial" font-size="12.00"  text-anchor="middle">
		<text><tspan font-family="Arial" > 60</tspan></text>
	</g>
</g>
<g fill="none" color="black" stroke="currentColor" stroke-width="1.00" stroke-linecap="butt" stroke-linejoin="miter">
	<path stroke='black'  d='M453.1,428.0 L453.1,419.0 M453.1,18.1 L453.1,27.1  '/>	<g transform="translate(453.1,449.9)" stroke="none" fill="black" font-family="Arial" font-size="12.00"  text-anchor="middle">
		<text><tspan font-family="Arial" > 70</tspan></text>
	</g>
</g>
<g fill="none" color="black" stroke="currentColor" stroke-width="1.00" stroke-linecap="butt" stroke-linejoin="miter">
	<path stroke='black'  d='M508.9,428.0 L508.9,419.0 M508.9,18.1 L508.9,27.1  '/>	<g transform="translate(508.9,449.9)" stroke="none" fill="black" font-family="Arial" font-size="12.00"  text-anchor="middle">
		<text><tspan font-family="Arial" > 80</tspan></text>
	</g>
</g>
<g fill="none" color="black" stroke="currentColor" stroke-width="1.00" stroke-linecap="butt" stroke-linejoin="miter">
	<path stroke='black'  d='M564.7,428.0 L564.7,419.0 M564.7,18.1 L564.7,27.1  '/>	<g transform="translate(564.7,449.9)" stroke="none" fill="black" font-family="Arial" font-size="12.00"  text-anchor="middle">
		<text><tspan font-family="Arial" > 90</tspan></text>
	</g>
</g>
<g fill="none" color="black" stroke="currentColor" stroke-width="1.00" stroke-linecap="butt" stroke-linejoin="miter">
</g>
<g fill="none" color="black" stroke="currentColor" stroke-width="1.00" stroke-linecap="butt" stroke-linejoin="miter">
	<path stroke='black'  d='M62.2,18.1 L62.2,428.0 L615.0,428.0 L615.0,18.1 L62.2,18.1 Z  '/></g>
<g fill="none" color="black" stroke="currentColor" stroke-width="1.00" stroke-linecap="butt" stroke-linejoin="miter">
</g>
	<g id="gnuplot_plot_1" ><title>pages+cached+noexternal+nofonts</title>
<g fill="none" color="black" stroke="currentColor" stroke-width="1.00" stroke-linecap="butt" stroke-linejoin="miter">
	<g transform="translate(437.8,467.9)" stroke="none" fill="black" font-family="Arial" font-size="12.00"  text-anchor="end">
		<text><tspan font-family="Arial" >pages+cached+noexternal+nofonts</tspan></text>
	</g>
</g>
<g fill="none" color="black" stroke="currentColor" stroke-width="1.00" stroke-linecap="butt" stroke-linejoin="miter">
	<path stroke='rgb(148,   0, 211)'  d='M446.1,464.0 L488.3,464.0 M62.2,418.5 L67.8,418.5 L73.4,418.5 L79.0,253.1 L84.5,253.6 L90.1,419.0
		L95.7,419.6 L101.3,212.7 L106.9,419.0 L112.5,82.8 L118.0,253.6 L123.6,419.0 L129.2,419.6 L134.8,419.0
		L140.4,419.0 L146.0,419.0 L151.5,418.5 L157.1,419.0 L162.7,419.0 L168.3,88.2 L173.9,419.0 L179.5,417.9
		L185.0,417.4 L190.6,211.6 L196.2,419.0 L201.8,419.6 L207.4,419.6 L213.0,419.0 L218.5,419.0 L224.1,419.0
		L229.7,83.3 L235.3,86.0 L240.9,419.6 L246.5,253.1 L252.1,85.5 L257.6,84.4 L263.2,419.0 L268.8,419.0
		L274.4,417.9 L280.0,418.5 L285.6,83.3 L291.1,418.5 L296.7,87.1 L302.3,419.0 L307.9,418.5 L313.5,254.2
		L319.1,419.0 L324.6,208.3 L330.2,419.0 L335.8,86.6 L341.4,85.5 L347.0,419.0 L352.6,419.0 L358.1,419.0
		L363.7,88.8 L369.3,212.1 L374.9,254.2 L380.5,87.7 L386.1,418.5 L391.6,419.0 L397.2,419.6 L402.8,419.0
		L408.4,418.5 L414.0,84.4 L419.6,419.0 L425.1,87.1 L430.7,86.6 L436.3,418.5 L441.9,82.8 L447.5,419.0
		L453.1,419.0 L458.7,419.0 L464.2,419.0 L469.8,420.1 L475.4,87.7 L481.0,418.5 L486.6,87.7 L492.2,419.6
		L497.7,253.1 L503.3,253.1 L508.9,418.5 L514.5,419.6 L520.1,419.6 L525.7,419.0 L531.2,418.5 L536.8,418.5
		L542.4,87.7 L548.0,419.0 L553.6,419.0 L559.2,84.9 L564.7,419.0 L570.3,418.5 L575.9,418.5 L581.5,418.5
		L587.1,209.9 L592.7,419.0 L598.2,253.1 L603.8,419.6 L609.4,418.5 L615.0,418.5  '/></g>
	</g>
	<g id="gnuplot_plot_2" ><title>pages+cached+noexternal+nosvg</title>
<g fill="none" color="black" stroke="currentColor" stroke-width="1.00" stroke-linecap="butt" stroke-linejoin="miter">
	<g transform="translate(437.8,485.9)" stroke="none" fill="black" font-family="Arial" font-size="12.00"  text-anchor="end">
		<text><tspan font-family="Arial" >pages+cached+noexternal+nosvg</tspan></text>
	</g>
</g>
<g fill="none" color="black" stroke="currentColor" stroke-width="1.00" stroke-linecap="butt" stroke-linejoin="miter">
	<path stroke='rgb(  0, 158, 115)'  d='M446.1,482.0 L488.3,482.0 M62.2,253.1 L67.8,253.1 L73.4,250.9 L79.0,252.0 L84.5,252.5 L90.1,253.1
		L95.7,249.8 L101.3,249.8 L106.9,251.4 L112.5,250.9 L118.0,250.9 L123.6,26.0 L129.2,123.7 L134.8,253.1
		L140.4,250.3 L146.0,250.3 L151.5,252.5 L157.1,252.5 L162.7,251.4 L168.3,128.6 L173.9,250.9 L179.5,252.0
		L185.0,252.0 L190.6,250.9 L196.2,252.0 L201.8,251.4 L207.4,250.9 L213.0,251.4 L218.5,252.5 L224.1,252.5
		L229.7,250.9 L235.3,250.9 L240.9,250.9 L246.5,253.1 L252.1,250.9 L257.6,126.4 L263.2,127.0 L268.8,250.3
		L274.4,251.4 L280.0,251.4 L285.6,250.9 L291.1,252.0 L296.7,251.4 L302.3,249.8 L307.9,250.3 L313.5,252.0
		L319.1,252.5 L324.6,251.4 L330.2,250.9 L335.8,249.3 L341.4,126.4 L347.0,250.9 L352.6,252.0 L358.1,250.9
		L363.7,251.4 L369.3,253.6 L374.9,251.4 L380.5,249.3 L386.1,251.4 L391.6,252.5 L397.2,248.7 L402.8,252.5
		L408.4,251.4 L414.0,252.5 L419.6,252.0 L425.1,252.0 L430.7,252.5 L436.3,124.8 L441.9,252.0 L447.5,252.0
		L453.1,252.5 L458.7,253.1 L464.2,251.4 L469.8,250.3 L475.4,251.4 L481.0,251.4 L486.6,253.1 L492.2,250.9
		L497.7,249.8 L503.3,252.0 L508.9,250.9 L514.5,252.5 L520.1,253.1 L525.7,252.5 L531.2,251.4 L536.8,251.4
		L542.4,250.3 L548.0,250.9 L553.6,250.9 L559.2,250.9 L564.7,253.1 L570.3,252.5 L575.9,251.4 L581.5,252.5
		L587.1,249.8 L592.7,250.9 L598.2,252.5 L603.8,252.0 L609.4,251.4 L615.0,250.9  '/></g>
	</g>
<g fill="none" color="#FFFFFF" stroke="rgb(  0, 158, 115)" stroke-width="2.00" stroke-linecap="butt" stroke-linejoin="miter">
</g>
<g fill="none" color="black" stroke="currentColor" stroke-width="2.00" stroke-linecap="butt" stroke-linejoin="miter">
</g>
<g fill="none" color="black" stroke="black" stroke-width="1.00" stroke-linecap="butt" stroke-linejoin="miter">
</g>
<g fill="none" color="black" stroke="currentColor" stroke-width="1.00" stroke-linecap="butt" stroke-linejoin="miter">
	<path stroke='black'  d='M62.2,18.1 L62.2,428.0 L615.0,428.0 L615.0,18.1 L62.2,18.1 Z  '/></g>
<g fill="none" color="black" stroke="currentColor" stroke-width="1.00" stroke-linecap="butt" stroke-linejoin="miter">
</g>
</g>
</svg>
